X: 35589
T: S'iomadh Rud A Chunnaic Mi
R: reel
M: 4/4
K: Amajor
BccB AFEF|A2BA F2E2|BccB AFEF|AFEF A2 A2|
BccB AFEF|A2BA F2E2|BccB AFEF|AFEF A2 A2|
A2Bc ecBc|ecBc AFED|A2Bc ecBc|AFEF A2 A2|
A2Bc ecBc|ecBc AFED|A2Bc ecBc|AFEF A2 A2|

